X:1
T:Mozart's Favorite Waltz
T:Mozart's Favorite Waltz
T:with variations
T:Ch. Grobe Op. 752
T:Melodies of the day N°20
T:by IMSLP
T:by IMSLP
T:by IMSLP
T:by IMSLP
C:Ch. Grobe Op. 752
Z:Melodies of the day N°20
Z:by IMSLP
%%score { 1 | ( 2 3 ) }
L:1/8
Q:1/4=96
M:3/4
K:C
V:1 treble nm="Piano" snm="Pno."
V:2 bass 
V:3 bass 
V:1
!mf!"^Tempo di Valse" .!2!c'(bc') |!>(! (!4!e'c'gefd)!>)! |!>(! (!4!afcAec)!>)! | %3
!>(! (!4!agfdfd)!>)! | !1!g3 .!2!c'(bc') |!>(! (!4!e'c'gefd)!>)! |!>(! (!4!agecec)!>)! | %7
!>(! (!4!agfdBd)!>)! | c3 ::!p! .!+!G(!1!ce) | (efd).G.B.e | (dec).G.c.e | (!1!B!4!g!+!GgBg) | %13
 (ceG).G.c.e |!mf! (efd)"_cresc.".G.B.d | (dec).G.c.e | (!1!B!4!g!+!GgBg) | !>!c2 z :: z2 z | %19
!mf! (!4!c'b) !>!b2 (c'a) |!>(! (ag) g4!>)! |!mf! (!3!c'b)(bd')(c'a) | (ag) !>!g3 .!3!!1![df] | %23
"_cresc." !>!!+!!2![ce]2 !>!!+!!1![ce]3 .!+!!2![df] | (!2!!4![fa].!1!!3![eg]) !>![eg]3 !+!!1![ce] | %25
 .!1!!3![eg].!+!!2![df] [df]3 .[Fd] | [Fd][Ec] .[Ec] ::!p! !+!G(AG) | .c.G.e(GAG) | .B.G.d(GAG) | %30
 .d.G.f(GAG) | .c.G.e(GAG) | .c.G.e(GAG) | .B.G.d(GAG) | .d.G.f(GAG) | !>!c2 z ::!p! .!3!g(ag) | %37
!<(! (^fg=fgeg)!<)! | (dg!p!c!3!gag) |"_cresc." (^fg=fgeg) | (dg).c(!+!G!1!A!+!G) | %41
!p! .c.G.e"_cresc."(GAG) | .B.G.d(GAG) | .d.G.f(GAG) | z2 z :| %45
[M:2/4]!f![Q:1/4=96]"^Vivace" (!2!c'/d'/) | (e'/c'/g/e/) .f.d | (!4!a/g/e/c/) .e.c | %48
 (!4!a/g/f/d/) .f.d | !>!g2 z!p! (!2!c'/d'/) | (!4!e'/c'/g/e/) .f.d | (!4!a/g/e/c/) .e.c | %52
 (!4!a/g/f/d/) .!1!B.!3!d | !>!c3 ::!mf!!8va(! (g/c'/) | (e'f') d'/(g/b/d'/) | %56
 (d'e') c'/(g/c'/e'/) | (!1!b/g'/).g (b/g'/).g | .c'.e' .g/(g/c'/e'/) |!p! e'f' .d'/(g/b/d'/) | %60
 (d'e') .c'/(g/b/d'/) | (b/g'/).g (b/g'/).g | !>!c'3!8va)! :: z | %64
!f! (!3!c'/b/)!wedge!a (c'/b/)!wedge!a |!>(! (.a.g) !>!g3/2 z/!>)! | %66
!f! (!3!c'/b/)!wedge!a (!4!d'/c'/)!wedge!a |!>(! ag !>!g>.!1!!3![df]!>)! | %68
!mf! !wedge!!+!!2![ce] !>![ce]2 !wedge!!1!!3![df] | !2!!4![fa]!1!!3![eg] !>![eg]>.!+!!2![ce] | %70
!>(! .!2!!4![eg].!1!!3![df] !>![eg]>[Fd]!>)! | .[Fd].[Ec] .[Ec] ::!p! (3(!+!G/!1!A/!2!B/) | %73
 .!3!c.G (!4!e/G/A/G/) | .B.G (d/G/A/G/) | .d.G (f/G/A/G/) | .c.G (e/G/A/G/) | %77
"_cresc." .c.G (e/G/A/G/) | .B.G (d/G/A/G/) | .d.G (f/G/A/G/) | (c/G/e/G/) !wedge!c :| %81
!p! (3(g/a/g/) | (!2!^f/g/=f/!2!g/) .!1!e.g | .d.g (c/!3!g/a/g/) | (!2!^f/g/=f/g/) .e.g | %85
 .d.g .c!<(! (3(g/a/b/)!<)! |!p! .c'.g"_cresc." (e'/g/a/g/) | .c'.g (d'/g/a/g/) | %88
 .d'.g (f'/g/a/g/) |!f! (c'/g/e'/g/)"_cresc." (c'/g/e'/g/) | (c'/g/e'/g/) (c'/g/e'/g/) | %91
 !wedge!c' z z!f! z/ !wedge![DG]/ | [DG]3!ff! z/ !wedge![Ec]/ | !fermata![Ec]3 |] %94
V:2
 z2 z |!ped! ([CE]2 G2!ped-up! G,2) |!ped! ([CE]2 G2 G,2)!ped-up! |!ped! ([B,D]2 G2 G,2)!ped-up! | %4
!ped! ([CE]2 G2 G,2)!ped-up! |!ped! ([CE]2 G2!ped-up! G,2) |!ped! ([CE]2 G2 G,2)!ped-up! | %7
!ped! ([B,D]2 G2 G,2)!ped-up! | !>!C2 !wedge!C, :: z2 z |!ped! z2 [B,D]2 [B,D]2!ped-up! | %11
!ped! z2 [CE]2 [CE]2!ped-up! |!ped! z2 [DF]2 [DF]2!ped-up! |!ped! z2 [CE]2 [CE]2!ped-up! | %14
!ped! z2 [B,D]2 [B,D]2!ped-up! |!ped! z2 [CE]2 [CE]2!ped-up! |!ped! z2 [DF]2 [DF]2!ped-up! | %17
 !>!C2 !wedge!C, :: z2 z |!ped! (C,A,F,A,F,A,)!ped-up! | (C,G,E,G,E,G,) | %21
!ped! (C,A,F,A,F,A,)!ped-up! |!ped! (C,G,E,G,)G,,!ped-up!G, | C,2 [E,C]2 !>![G,D]2 | %24
!ped! [CE]2 [CE]2 [CE]2!ped-up! |!ped! [G,D]2 [G,D]2 [G,D]2!ped-up! | %26
!ped! !>!C2 !wedge!C,!ped-up! :: z2 z |!ped! C,2 [E,G,C]2 z2!ped-up! |!ped! G,2 [B,D]2 z2!ped-up! | %30
!ped! G,2 [B,D]2 z2!ped-up! |!ped! C,2 [E,G,C]2 z2!ped-up! |!ped! C,2 [E,G,C]2 z2!ped-up! | %33
!ped! G,2 [B,D]2 z2!ped-up! |!ped! G,2 [B,D]2 z2!ped-up! |!ped! !>!C2 !wedge!C,!ped-up! :: z2 z | %37
[K:treble] z2 !>![B,G]2 !>![CG]2 | [FG]2 !wedge![EG] z z2 |[K:bass] z2 !>![D,B,]2 !>![E,C]2 | %40
 !>![F,B,]2 !wedge![E,C] z z2 |!ped! C,2 [E,G,C]2 z2!ped-up! |!ped! G,2 [B,E]2 z2!ped-up! | %43
!ped! G,2 [B,E]2 z2!ped-up! | !>!C2 C, :|[M:2/4] z |!ped! .C,.[E,G,] .G,,.[B,,G,]!ped-up! | %47
!ped! C,[E,G,][E,G,][E,G,]!ped-up! |!ped! (G,,B,,D,G,)!ped-up! | C,[E,G,][E,G,][E,G,] | %50
!ped! (C,/G,/E,/G,/)!ped-up!!ped! (G,,/G,/B,,/G,/)!ped-up! | %51
!ped! (C,/G,/E,/G,/) (C,/G,/E,/G,/)!ped-up! |!ped! (G,,/G,/B,,/G,/) (G,,/F,/D,/F,/)!ped-up! | %53
!ped! (C,/G,/E,/G,/) !wedge!C,!ped-up! :: z |!ped! G,[B,D][B,D][B,D]!ped-up! | %56
!ped! G,[CE][CE][CE]!ped-up! |!ped! G,[DF][DF][DF]!ped-up! |!ped! C[EG][EG][EG]!ped-up! | %59
!ped! (G,/F/D/F/) (G,/F/D/F/)!ped-up! |!ped! (G,/E/C/E/) (G,/E/C/E/)!ped-up! | %61
!ped! (G,/F/D/F/) (G,/F/D/F/)!ped-up! |!ped! !wedge!C(G,/E,/) !wedge!C,!ped-up! :: z | %64
!ped! .C,.[F,A,].[F,A,].[F,A,]!ped-up! |!ped! C,[E,G,][E,G,][E,G,]!ped-up! | %66
!ped! D,[F,A,][F,A,][F,A,]!ped-up! |!ped! E,[E,G,] [E,G,]G,,!ped-up! | %68
!ped! C,[E,G,] G,,G,!ped-up! |!ped! C,[E,G,][E,G,][E,G,]!ped-up! | %70
!ped! G,,[B,,G,][B,,G,][B,,G,]!ped-up! |!ped! .C,.[E,G,].C,!ped-up! :: z | %73
!ped! C,[E,G,][E,G,][E,G,]!ped-up! |!ped! G,,[D,F,][D,F,][D,F,]!ped-up! | %75
!ped! G,,[D,F,][D,F,][D,F,]!ped-up! |!ped! C,[E,G,][E,G,][E,G,] | C,[E,G,][E,G,][E,G,]!ped-up! | %78
!ped! G,,[D,F,][D,F,][D,F,] | G,,[D,F,][D,F,][D,F,]!ped-up! |!ped! C,[E,G,][E,G,]!ped-up! :| z | %82
 ([B,D]G,[CE]G,) | ([B,F]G,[CE]G,) | ([B,D]G,[CE]G,) | [B,F]G, .[CE] z | %86
[K:treble]!ped! (C/G/E/G/) (C/G/E/G/)!ped-up! |!ped! (G,/F/D/F/) (G,/F/D/F/)!ped-up! | %88
!ped! ((G,/D/B,/D/)) ((G,/D/B,/D/))!ped-up! |[K:bass]!ped! !>!C2 .G,.E, | !>!C,2 .G,,.E,, | %91
 !wedge!C,, z!ped-up! z z/!ped! !wedge![G,B,]/ | [G,B,]3!ped-up!!ped! z/ !wedge![C,G,C]/ | %93
 !fermata![C,G,C]3!ped-up! |] %94
V:3
 x3 | x6 | x6 | x6 | x6 | x6 | x6 | x6 | x3 :: x3 | G,6 | G,6 | G,6 | G,6 | G,6 | G,6 | G,6 | x3 :: %18
 x3 | C,6 | C,6 | C,6 | x6 | x6 | x6 | x6 | x3 :: x3 | x6 | x6 | x6 | x6 | x6 | x6 | x6 | x3 :: %36
 x3 |[K:treble] x6 | x6 |[K:bass] x6 | x6 | x6 | x6 | x6 | x3 :|[M:2/4] x | x4 | x4 | x4 | x4 | %50
 x4 | x4 | x4 | x3 :: x | x4 | x4 | x4 | x4 | x4 | x4 | x4 | x3 :: x | x4 | x4 | x4 | x4 | x4 | %69
 x4 | x4 | x3 :: x | x4 | x4 | x4 | x4 | x4 | x4 | x4 | x3 :| x | x4 | x4 | x4 | x4 | %86
[K:treble] x4 | x4 | x4 |[K:bass] x4 | x4 | x4 | x4 | x3 |] %94

